X: 38755
T: Strop The Razor
R: jig
M: 6/8
K: Gmajor
BGG AGG|BGG AGF|DGG GFG|DGG G2A|
BGG AGG|BGG AGF|D2E F2G|ADE FGA:|
dBB cAA|dBB cAF|DGG GFG|DGG G2B|
dBB cAA|dBB cAF|D2E F2G|ADE FGA:|
BAB cBc|dcd dBd|g3 gfd|gag gdc|
BAB cBc|dcd d2e|f3 fde|fag fdc:|

